X: 117
T: 117. Nun ruhen alle W\"alder
N: Derived from chor117.krn
C: Johann Sebastian Bach
%%abc-version 2.0
%%abcx-abcm2ps-target-version 5.9.1 (29 Sep 2008)
%%abc-creator hum2abc beta
%%abcx-conversion-date 2019/03/11 17:28:18
%%abc-edited-by Craig Stuart Sapp
%%humdrum-veritas 3664623752
%%humdrum-veritas-data 3072924717
%%
%%barnumbers 0
L: 1/4
M: C
%%staves [1 2 3 4]
V: 1 clef=treble
V: 2 clef=treble
V: 3 clef=treble-8
V: 4 clef=bass
K: Ab
[V:1] c [I:setbarnb 1]| 
[V:2] A | 
[V:3] e | 
[V:4] A, | 
[V:1] ABc/d/e | 
[V:2] FGA/B/c | 
[V:3] dde/d/ c/B/ | 
[V:4] D/C/B,A,3/G,/ | 
[V:1] d2!fermata!cc/d/ | 
[V:2] cB!fermata!AA | 
[V:3] Ae!fermata!ef | 
[V:4] F,G,!fermata!A,F, | 
[V:1] eeBc | 
[V:2] A/G/ A/F/ G/F/E | 
[V:3] eeeG | 
[V:4] C,/B,,/ C,/D,/ E,/D,/C, | 
[V:1] A2!fermata!GE | 
[V:2] E=D!fermata!EB, | 
[V:3] A/G/A!fermata!BG/F/ | 
[V:4] F,2!fermata!E,_D, | 
[V:1] ABcc | 
[V:2] E_DC/D/E | 
[V:3] EF/G/AA | 
[V:4] C,B,,A,,/B,,/ C,/D,/ | 
[V:1] !fermata!B3c | 
[V:2] !fermata!E3G | 
[V:3] !fermata!G3c | 
[V:4] !fermata!E,3=E, | 
[V:1] ABc/d/e | 
[V:2] F_EEF | 
[V:3] c/d/ c/B/ A/B/c | 
[V:4] F,G,A,=A, | 
[V:1] d2!fermata!cc/d/ | 
[V:2] F/E/ F/G/!fermata!=A_A | 
[V:3] B/c/ d/e/!fermata!ff | 
[V:4] B,B,,!fermata!F,F, | 
[V:1] eeBc | 
[V:2] BA/G/FG | 
[V:3] e/d/c=dG | 
[V:4] G,A,A,/G,/ F,/=E,/ | 
[V:1] A2!fermata!GE | 
[V:2] GF!fermata!=E_E | 
[V:3] c2!fermata!cc | 
[V:4] F,/G,/ A,/B,/!fermata!CC, | 
[V:1] ABcd | 
[V:2] E/F/ E/D/ C/E/ F/G/ | 
[V:3] c/d/ c/B/AA | 
[V:4] F,G,A,/G,/ F,/E,/ | 
[V:1] cB!fermata!A |]  
[V:2] AG!fermata!E |]  
[V:3] fB/c//d//!fermata!c |]  
[V:4] D,E,!fermata!A,, |]  



